Simply-White-Circles/scalable/mimes/application-x-shar.svg

<?xml version="1.0" encoding="UTF-8" standalone="no"?><svg xmlns:dc="http://purl.org/dc/elements/1.1/" xmlns:cc="http://creativecommons.org/ns#" xmlns:rdf="http://www.w3.org/1999/02/22-rdf-syntax-ns#" xmlns="http://www.w3.org/2000/svg" width="48" height="48" viewBox="0 0 12.7 12.7"><metadata><rdf:RDF><cc:Work><dc:format>image/svg+xml</dc:format><dc:type rdf:resource="http://purl.org/dc/dcmitype/StillImage"/><dc:title/></cc:Work></rdf:RDF></metadata><path d="M1.21.86L.14 3.66h6.04V.86H1.21zm5.18 0v2.8h6.11L11.4.86H6.4zM.19 3.89v6.31c0 .64.25 1.18.74 1.64.5.45 1.08.67 1.78.67h7.25c.7 0 1.28-.22 1.78-.67.49-.46.73-1 .73-1.64V3.9h-1.12v6.3c0 .36-.13.66-.4.91a1.4 1.4 0 0 1-.99.38H2.71a1.4 1.4 0 0 1-.99-.38 1.19 1.19 0 0 1-.41-.9V3.88H.19zm1.53 1.4v1.06H2v1.06h.53V6.35h.26V5.29H1.72zm1.32.05v.53h.53v-.53h-.53zm.53.53v.53h.53v-.53h-.53zm.53 0h.53v-.53H4.1v.53zm.53 0v.53h.53v-.53h-.53zm.53 0h.52v-.53h-.52v.53zm.52 0v.53h.53v-.53h-.53zm.53 0h.53v-.53h-.53v.53zm.53 0v.53h.53v-.53h-.53zm.53 0h.53v-.53h-.53v.53zm.53 0v.53h.53v-.53H7.8zm.53 0h.53v-.53h-.53v.53zm.53 0v.53h.53v-.53h-.53zm.53 0h.53v-.53h-.53v.53zm.53 0v.53h.53v-.53h-.53zm.53 0h.53v-.53h-.53v.53zm-8.46-.31h.53v.53h-.53v-.53zm2.6 2.34v2.35H5v-.9c0-.17.01-.27.06-.35.06-.1.17-.16.3-.16.26 0 .35.14.35.51v.9h.42v-1c0-.25-.03-.4-.12-.52-.11-.19-.32-.29-.57-.29a.63.63 0 0 0-.44.17v-.7h-.43zm4.93.55c-.18 0-.27.05-.38.21V8.5h-.4v1.76h.43v-.98c0-.27.12-.41.38-.42v-.4h-.03zm-5.8 0c-.32 0-.58.23-.58.53 0 .26.14.4.5.52.15.06.16.07.2.1.06.03.09.08.09.13 0 .1-.08.17-.2.17-.12 0-.19-.06-.23-.21h-.42c.02.17.05.26.12.35a.66.66 0 0 0 .52.25.6.6 0 0 0 .63-.6.45.45 0 0 0-.16-.37.96.96 0 0 0-.33-.14l-.21-.08c-.06-.02-.09-.06-.09-.12 0-.08.07-.14.16-.14.1 0 .15.04.17.14h.41a.47.47 0 0 0-.12-.34.6.6 0 0 0-.45-.2zm3.59 0c-.52 0-.9.39-.9.93 0 .53.37.91.89.91.24 0 .41-.08.58-.27v.23h.39V8.49h-.39v.24a.65.65 0 0 0-.57-.28zm.04.39c.3 0 .52.22.52.54a.6.6 0 0 1-.13.36.49.49 0 0 1-.38.16.5.5 0 0 1-.52-.52c0-.32.21-.54.51-.54z" fill="#e6e6e6"/></svg>

<?xml version="1.0" encoding="UTF-8" standalone="no"?>
<svg
   xmlns:dc="http://purl.org/dc/elements/1.1/"
   xmlns:cc="http://creativecommons.org/ns#"
   xmlns:rdf="http://www.w3.org/1999/02/22-rdf-syntax-ns#"
   xmlns:svg="http://www.w3.org/2000/svg"
   xmlns="http://www.w3.org/2000/svg"
   xmlns:sodipodi="http://sodipodi.sourceforge.net/DTD/sodipodi-0.dtd"
   xmlns:inkscape="http://www.inkscape.org/namespaces/inkscape"
   width="48"
   height="48"
   viewBox="0 0 12.7 12.7"
   version="1.1"
   id="svg6"
   sodipodi:docname="application-x-shar.svg"
   inkscape:version="0.92.4 (5da689c313, 2019-01-14)">
  <defs
     id="defs10" />
  <sodipodi:namedview
     pagecolor="#ffffff"
     bordercolor="#666666"
     borderopacity="1"
     objecttolerance="10"
     gridtolerance="10"
     guidetolerance="10"
     inkscape:pageopacity="0"
     inkscape:pageshadow="2"
     inkscape:window-width="1087"
     inkscape:window-height="480"
     id="namedview8"
     showgrid="false"
     inkscape:zoom="4.9166667"
     inkscape:cx="2.1355932"
     inkscape:cy="24"
     inkscape:window-x="0"
     inkscape:window-y="25"
     inkscape:window-maximized="0"
     inkscape:current-layer="svg6" />
  <metadata
     id="metadata2">
    <rdf:RDF>
      <cc:Work>
        <dc:format>image/svg+xml</dc:format>
        <dc:type
           rdf:resource="http://purl.org/dc/dcmitype/StillImage" />
        <dc:title></dc:title>
      </cc:Work>
    </rdf:RDF>
  </metadata>
  <path
     d="m 1.21,0.86 -1.07,2.8 h 6.04 v -2.8 z m 5.18,0 v 2.8 h 6.11 l -1.1,-2.8 h -5 z m -6.2,3.03 v 6.31 c 0,0.64 0.25,1.18 0.74,1.64 0.5,0.45 1.08,0.67 1.78,0.67 h 7.25 c 0.7,0 1.28,-0.22 1.78,-0.67 0.49,-0.46 0.73,-1 0.73,-1.64 V 3.9 h -1.12 v 6.3 c 0,0.36 -0.13,0.66 -0.4,0.91 A 1.4,1.4 0 0 1 9.96,11.49 H 2.71 A 1.4,1.4 0 0 1 1.72,11.11 1.19,1.19 0 0 1 1.31,10.21 V 3.88 H 0.19 Z m 1.53,1.4 V 6.35 H 2 V 7.41 H 2.53 V 6.35 H 2.79 V 5.29 Z M 3.04,5.34 V 5.87 H 3.57 V 5.34 Z M 3.57,5.87 V 6.4 H 4.1 V 5.87 Z m 0.53,0 H 4.63 V 5.34 H 4.1 Z m 0.53,0 V 6.4 H 5.16 V 5.87 Z m 0.53,0 H 5.68 V 5.34 H 5.16 Z m 0.52,0 V 6.4 H 6.21 V 5.87 Z m 0.53,0 H 6.74 V 5.34 H 6.21 Z m 0.53,0 V 6.4 H 7.27 V 5.87 Z m 0.53,0 H 7.8 V 5.34 H 7.27 Z m 0.53,0 V 6.4 H 8.33 V 5.87 Z m 0.53,0 H 8.86 V 5.34 H 8.33 Z m 0.53,0 V 6.4 H 9.39 V 5.87 Z m 0.53,0 H 9.92 V 5.34 H 9.39 Z m 0.53,0 V 6.4 h 0.53 V 5.87 Z m 0.53,0 h 0.53 V 5.34 H 10.45 Z M 1.99,5.56 H 2.52 V 6.09 H 1.99 Z m 2.6,2.34 v 2.35 H 5 V 9.35 C 5,9.18 5.01,9.08 5.06,9 5.12,8.9 5.23,8.84 5.36,8.84 c 0.26,0 0.35,0.14 0.35,0.51 v 0.9 h 0.42 v -1 C 6.13,9 6.1,8.85 6.01,8.73 5.9,8.54 5.69,8.44 5.44,8.44 A 0.63,0.63 0 0 0 5,8.61 V 7.91 H 4.57 Z M 9.52,8.45 C 9.34,8.45 9.25,8.5 9.14,8.66 V 8.5 h -0.4 v 1.76 H 9.17 V 9.28 C 9.17,9.01 9.29,8.87 9.55,8.86 V 8.46 H 9.52 Z m -5.8,0 c -0.32,0 -0.58,0.23 -0.58,0.53 0,0.26 0.14,0.4 0.5,0.52 C 3.79,9.56 3.8,9.57 3.84,9.6 3.9,9.63 3.93,9.68 3.93,9.73 3.93,9.83 3.85,9.9 3.73,9.9 3.61,9.9 3.54,9.84 3.5,9.69 H 3.08 C 3.1,9.86 3.13,9.95 3.2,10.04 A 0.66,0.66 0 0 0 3.72,10.29 0.6,0.6 0 0 0 4.35,9.69 0.45,0.45 0 0 0 4.19,9.32 0.96,0.96 0 0 0 3.86,9.18 L 3.65,9.1 C 3.59,9.08 3.56,9.04 3.56,8.98 3.56,8.9 3.63,8.84 3.72,8.84 c 0.1,0 0.15,0.04 0.17,0.14 H 4.3 A 0.47,0.47 0 0 0 4.18,8.64 0.6,0.6 0 0 0 3.73,8.44 Z m 3.59,0 c -0.52,0 -0.9,0.39 -0.9,0.93 0,0.53 0.37,0.91 0.89,0.91 0.24,0 0.41,-0.08 0.58,-0.27 v 0.23 H 8.27 V 8.49 H 7.88 V 8.73 A 0.65,0.65 0 0 0 7.31,8.45 Z m 0.04,0.39 c 0.3,0 0.52,0.22 0.52,0.54 A 0.6,0.6 0 0 1 7.74,9.74 0.49,0.49 0 0 1 7.36,9.9 0.5,0.5 0 0 1 6.84,9.38 c 0,-0.32 0.21,-0.54 0.51,-0.54 z"
     id="path4"
     inkscape:connector-curvature="0"
     style="fill:#e6e6e6" />
</svg>
